assets/static/svgs/currencies/icon-swiss-franc.svg

<svg width="1em" height="1em"  viewBox="0 0 24 24" fill="none" xmlns="http://www.w3.org/2000/svg">
<symbol id="item"
width="1em"
height="1em"
viewBox="0 0 24 24"
fill="none"
>
 <path d="M12 24C18.6274 24 24 18.6274 24 12C24 5.37258 18.6274 0 12 0C5.37258 0 0 5.37258 0 12C0 18.6274 5.37258 24 12 24Z" fill="#E52931"/> <path d="M15.7 8.6002H11.9V11.0002H15.4V13.0002H11.9V14.4002H13.9V15.6002H11.9V17.6002H9.50005V15.6002H8.30005V14.4002H9.50005V6.7002H15.8L15.7 8.6002Z" fill="var(--color--bulma-100)"/> 
</symbol>
</svg>

<svg width="1em" height="1em"    viewBox="0 0 24 24" fill="none" xmlns="http://www.w3.org/2000/svg">
<symbol id="item"
width="1em"
height="1em"
viewBox="0 0 24 24"
fill="none"
>
<path d="M12 24c6.627 0 12-5.373 12-12S18.627 0 12 0 0 5.373 0 12s5.373 12 12 12Z" fill="#E52931"/><path d="M15.7 8.6h-3.8V11h3.5v2h-3.5v1.4h2v1.2h-2v2H9.5v-2H8.3v-1.2h1.2V6.7h6.3l-.1 1.9Z" fill="var(--color--bulma-100)"/>
</symbol>
</svg>
